X:1
T:Madan
T:Hallifax
%%score 1 2 3
L:1/8
M:4/4
K:Eb
V:1 treble nm="Soprano" snm="S."
V:2 treble-8 nm="Tenor" snm="T."
V:3 bass nm="Bass" snm="B."
V:1
 B2 B>c B2 (AG) | (BA)(GF) E3 B | E2 (FG/A/) G3 B | E2 (FG/A/) G2 z2 | e2 ed B2 c2 | E2 F2 G3 F | %6
 E2 (DC) (cd)(eA) | G2 F2 E4 |] %8
V:2
 G2 G>A G2 (FE) | (GF)(ED) E3 e | B2 (DE/F/) E3 e | G2 (DE/F/) E2 z2 | G2 GF D2 (E>F) | %5
 G2 =B2 c2 (ed) | c2 G2 (EF)(GF) | E2 D2 E4 |] %8
V:3
 E,2 B,,>B,, G,,2 A,,2 | B,,2 B,,2 C,3 E, | G,,2 B,,2 E,3 G, | B,,2 B,,2 E,2 z2 | C,2 E,F, G,2 C2 | %5
 C,2 D,2 E,2 G,2 | C2 (DE) A,2 (G,A,) | B,2 B,,2 E,4 |] %8

